X:3
T:The Arkansas Traveler
S:Bernie Waugh
R:Reel
M:2/4
L:1/16
K:D
|:A,B,|\
"D"DFED "G"B,2B,2|"A"A,2A,2 "D"D4|"Em"E2E2 F2F2|"A"EFED B,2 A,B,|
"D"DFED "G"B,2B,2|"A"A,2A,2 "D"D2 (3ABc|"Em"dcdA "G"BdAG|"A"FDEC "D"D2:|
|:fg|\
"D"agfa "G"gfeg|"D"fedf "A"edBA|"Bm"dcdf edeg|"Em"fedf "A"e2fg|
"D"agfa "G"gfeg|"D"fedf "A"edBA|"Em"dcdA "G"BdAG|"A"FDEC "D"D2:|

